X: 07077
T: The MATTIN REEL
C: Bob McQuillen 22 June 89
B: Bob's Note Book 7 #77
%R: reel
Z: 2020 John Chambers <jc:trillian.mit.edu>
M: C
L: 1/8
K: D	# and Em
ge \
| "D"d2BG "Am"A2BA | "Em"GEDB, "Bm"DEGA | "Em"Bdeg e2d2 | "Em"B6 ge |
| "D"d2BG "Am"A2BA | "Em"GEDB, "Bm"DEGB | "Am"AGED "Bm"B,2D2 | "Em"E6 :|
|: ef \
| "Em"g2ag "B7"f2gf | "Em"eged B2ef | "Em"gage d2B2 | "D"d6 "Bm"Bd |
| "Em"eged B2ge | "G"dBGB "Am"A2BA | "Em"G2EG "Bm"FED2 | "Em"E6 :|
%%begintext align
%% Claire Mattin is
%% from Kensington, H.H., and calls dances in Madbury and
%% the Seacoast area - She and husband Steve sure are
%% nice to O.P.P.s*, and it's greatly appreciated - Hope you like
%% calling to this tune, Claire!
%%endtext
%%text * OLD PIANO PLAYERS

% %newpage (This file may be deleted soon.)

%%sep 1 1 500

%%sep 1 1 500

